assets/images/ico_visible.svg

<svg width="40" height="24" viewBox="0 0 40 24" fill="none" xmlns="http://www.w3.org/2000/svg">
<path d="M1.11814 10.6308C1.87042 9.59229 8.60139 0.668945 19.8857 0.668945C31.1699 0.668945 37.9009 9.59229 38.6532 10.6308C39.2471 11.4385 39.2471 12.5539 38.6532 13.4386L38.574 13.5539C36.8319 15.8617 30.3781 23.3619 19.8857 23.3619C8.60139 23.3619 1.87042 14.4386 1.11814 13.4001C0.524227 12.5924 0.524227 11.4385 1.11814 10.6308ZM19.8857 21.4388C29.4674 21.4388 35.3669 14.5155 36.9507 12.4001L36.9903 12.3616C37.109 12.1308 37.1486 11.9001 36.9903 11.7077C36.3172 10.7846 30.1801 2.59208 19.8857 2.59208C9.59124 2.59208 3.45418 10.7846 2.78109 11.7077C2.6623 11.9001 2.6623 12.1308 2.78109 12.3231C3.45418 13.2847 9.59124 21.4388 19.8857 21.4388Z" fill="#004A87"/>
<path d="M19.886 4.01526C24.4393 4.01526 28.1216 7.59229 28.1216 12.0155C28.1216 16.4387 24.4393 20.0157 19.886 20.0157C15.3327 20.0157 11.6505 16.4387 11.6505 12.0155C11.6505 7.59229 15.3327 4.01526 19.886 4.01526ZM19.886 18.0926C23.3307 18.0926 26.1419 15.3618 26.1419 12.0155C26.1419 8.66925 23.3307 5.93839 19.886 5.93839C16.4414 5.93839 13.6302 8.66925 13.6302 12.0155C13.6302 15.3618 16.4414 18.0926 19.886 18.0926Z" fill="#004A87"/>
</svg>

<svg width="40" height="24" fill="none" xmlns="http://www.w3.org/2000/svg"><path d="M1.118 10.63C1.87 9.593 8.601.67 19.886.67 31.17.669 37.9 9.592 38.653 10.63c.594.807.594 1.923 0 2.808l-.079.115c-1.742 2.308-8.196 9.808-18.688 9.808C8.6 23.362 1.87 14.439 1.118 13.4a2.375 2.375 0 010-2.77zm18.768 10.81c9.581 0 15.48-6.924 17.065-9.039l.04-.038c.118-.231.158-.462 0-.654-.674-.923-6.81-9.116-17.105-9.116-10.295 0-16.432 8.193-17.105 9.116a.576.576 0 000 .615c.673.962 6.81 9.116 17.105 9.116z" fill="#004A87"/><path d="M19.886 4.015c4.553 0 8.236 3.577 8.236 8 0 4.424-3.683 8-8.236 8-4.553 0-8.236-3.576-8.236-8 0-4.423 3.683-8 8.236-8zm0 14.078c3.445 0 6.256-2.731 6.256-6.078 0-3.346-2.811-6.077-6.256-6.077-3.445 0-6.256 2.731-6.256 6.077 0 3.347 2.811 6.078 6.256 6.078z" fill="#004A87"/></svg>
